src/assets/LEARN_MORE.svg

<svg width="98" height="300" viewBox="0 0 98 300" fill="none" xmlns="http://www.w3.org/2000/svg">
<rect x="0.872367" y="1.14887" width="56.5259" height="288.869" rx="19" transform="matrix(0.987826 0.155561 -0.115459 0.993312 36.8713 1.05237)" fill="#D3A7E0" stroke="#373737" stroke-width="2"/>
<path d="M36.9224 280.057L31.9076 272.848C31.1776 271.798 31.9114 270.258 33.0714 270.409L43.1934 271.716C44.6677 271.908 45.994 270.686 46.1544 268.988C46.3148 267.291 45.2507 265.761 43.7771 265.571L33.6558 264.264C32.4958 264.114 32.0687 262.425 32.978 261.587L39.224 255.833C37.3672 253.164 33.9874 252.727 31.6739 254.859L24.1883 261.755C21.8756 263.885 21.5051 267.777 23.3619 270.446L29.3712 279.085C31.2279 281.754 34.6085 282.192 36.922 280.06L36.9224 280.057Z" fill="#F6E9FA"/>
<path d="M59.8987 29.5821L59.1133 35.7825L53.0198 34.3926L54.5906 21.9917L75.9178 26.8565L75.1324 33.0569L59.8987 29.5821ZM71.8733 58.7863L65.7798 57.3964L66.9579 48.0957L65.4345 47.7482L64.4528 55.4988L58.3593 54.1089L59.341 46.3583L57.8177 46.0108L56.6395 55.3115L50.5461 53.9216L52.5096 38.4204L73.8368 43.2852L71.8733 58.7863ZM63.6533 71.7095L58.1315 68.2809L57.5974 72.4972L63.6533 71.7095ZM52.3188 64.6743L49.4115 62.8787L50.1969 56.6783L70.5423 69.2936L69.5605 77.0442L47.2516 79.93L48.037 73.7295L51.2231 73.3239L52.3188 64.6743ZM61.3507 92.362L58.3039 91.667L57.7149 96.3174C57.584 97.3508 58.0263 97.9833 59.0419 98.215C60.0575 98.4466 60.6307 98.0457 60.7616 97.0123L61.3507 92.362ZM52.2105 90.2771L46.117 88.8872L46.9024 82.6867L68.2296 87.5515L66.8551 98.4023C66.2006 103.569 63.3344 105.574 58.2565 104.415C54.1942 103.489 51.9662 101.279 51.5726 97.7871L44.3498 102.838L45.3316 95.0876L52.2105 90.2771ZM53.8709 114.29L43.2073 111.857L43.9927 105.657L65.3199 110.522L64.5345 116.722L52.8892 122.04L63.5528 124.473L62.7674 130.673L41.4401 125.808L42.2256 119.608L53.8709 114.29ZM37.5569 156.465L48.1461 153.298L38.2441 151.039L39.0296 144.839L60.3568 149.704L59.5714 155.904L48.2205 158.897L58.1969 166.755L57.4115 172.955L36.0843 168.091L36.8697 161.89L46.7716 164.149L37.5569 156.465ZM34.2428 182.628C34.6224 179.631 35.9874 177.311 38.3376 175.667C40.6879 174.024 43.3357 173.538 46.2809 174.21C49.226 174.881 51.6054 176.514 53.419 179.107C55.2326 181.701 55.9496 184.496 55.57 187.493C55.1904 190.49 53.8254 192.81 51.4751 194.454C49.1248 196.097 46.4771 196.583 43.5319 195.911C40.5867 195.239 38.2073 193.607 36.3938 191.013C34.5802 188.42 33.8632 185.625 34.2428 182.628ZM40.3363 184.018C40.174 185.299 40.4821 186.497 41.2606 187.61C42.0391 188.723 43.058 189.424 44.3173 189.711C45.5767 189.998 46.7108 189.789 47.7197 189.083C48.7286 188.378 49.3142 187.384 49.4765 186.103C49.6388 184.821 49.3307 183.624 48.5522 182.511C47.7737 181.398 46.7548 180.697 45.4955 180.41C44.2361 180.123 43.102 180.332 42.0931 181.038C41.0842 181.743 40.4986 182.737 40.3363 184.018ZM46.8496 206.841L43.8029 206.146L43.2138 210.796C43.0829 211.83 43.5253 212.462 44.5408 212.694C45.5564 212.926 46.1297 212.525 46.2606 211.491L46.8496 206.841ZM37.7094 204.756L31.6159 203.366L32.4013 197.166L53.7285 202.03L52.354 212.881C51.6995 218.048 48.8333 220.053 43.7554 218.894C39.6931 217.968 37.4651 215.758 37.0716 212.266L29.8487 217.317L30.8305 209.567L37.7094 204.756ZM48.8554 240.502L42.7619 239.112L43.94 229.811L42.4166 229.464L41.4348 237.214L35.3414 235.824L36.3231 228.074L34.7998 227.726L33.6216 237.027L27.5281 235.637L29.4917 220.136L50.8189 225.001L48.8554 240.502Z" fill="#F6E9FA"/>
</svg>

<svg width="98" height="300" fill="none" xmlns="http://www.w3.org/2000/svg"><rect x=".872" y="1.149" width="56.526" height="288.869" rx="19" transform="matrix(.98783 .15556 -.11546 .99331 36.871 1.052)" fill="#D3A7E0" stroke="#373737" stroke-width="2"/><path d="m36.922 280.057-5.014-7.209c-.73-1.05.003-2.59 1.163-2.439l10.122 1.307c1.475.192 2.801-1.03 2.961-2.728.16-1.697-.903-3.227-2.377-3.417l-10.121-1.307c-1.16-.15-1.587-1.839-.678-2.677l6.246-5.754c-1.857-2.669-5.237-3.106-7.55-.974l-7.486 6.896c-2.312 2.13-2.683 6.022-.826 8.691l6.01 8.639c1.856 2.669 5.236 3.107 7.55.975v-.003zM59.899 29.582l-.786 6.2-6.093-1.39 1.57-12.4 21.328 4.864-.786 6.2L59.9 29.583zm11.974 29.204-6.093-1.39 1.178-9.3-1.523-.348-.982 7.75-6.094-1.39.982-7.75-1.523-.347-1.178 9.3-6.094-1.39 1.964-15.5 21.327 4.864-1.964 15.501zm-8.22 12.924-5.521-3.43-.535 4.217 6.056-.787zM52.32 64.674 49.41 62.88l.786-6.2 20.345 12.615-.981 7.75-22.31 2.886.786-6.2 3.186-.406 1.096-8.65zm9.032 27.688-3.047-.695-.59 4.65c-.13 1.034.312 1.666 1.328 1.898 1.015.232 1.589-.17 1.72-1.203l.589-4.65zm-9.14-2.085-6.094-1.39.785-6.2 21.328 4.865-1.375 10.85c-.654 5.167-3.52 7.172-8.599 6.013-4.062-.926-6.29-3.136-6.683-6.628l-7.223 5.051.982-7.75 6.879-4.81zm1.66 24.013-10.664-2.433.786-6.2 21.327 4.865-.785 6.2-11.646 5.318 10.664 2.433-.786 6.2-21.327-4.865.786-6.2 11.645-5.318zm-16.314 42.175 10.59-3.167-9.903-2.259.786-6.2 21.327 4.865-.786 6.2-11.35 2.993 9.976 7.858-.786 6.2-21.327-4.864.786-6.201 9.902 2.259-9.215-7.684zm-3.314 26.163c.38-2.997 1.744-5.317 4.095-6.961 2.35-1.643 4.998-2.129 7.943-1.457 2.945.671 5.324 2.304 7.138 4.897 1.814 2.594 2.53 5.389 2.151 8.386-.38 2.997-1.745 5.317-4.095 6.961-2.35 1.643-4.998 2.129-7.943 1.457-2.945-.672-5.325-2.304-7.138-4.898-1.814-2.593-2.53-5.388-2.151-8.385zm6.093 1.39c-.162 1.281.146 2.479.925 3.592.778 1.113 1.797 1.814 3.056 2.101 1.26.287 2.394.078 3.403-.628 1.009-.705 1.594-1.699 1.757-2.98.162-1.282-.146-2.479-.925-3.592-.778-1.113-1.797-1.814-3.056-2.101-1.26-.287-2.394-.078-3.403.628-1.009.705-1.594 1.699-1.757 2.98zm6.514 22.823-3.047-.695-.59 4.65c-.13 1.034.312 1.666 1.328 1.898 1.015.232 1.589-.169 1.72-1.203l.589-4.65zm-9.14-2.085-6.094-1.39.785-6.2 21.327 4.864-1.374 10.851c-.654 5.167-3.52 7.172-8.599 6.013-4.062-.926-6.29-3.136-6.683-6.628l-7.223 5.051.982-7.75 6.878-4.811zm11.145 35.746-6.093-1.39 1.178-9.301-1.523-.347-.982 7.75-6.094-1.39.982-7.75-1.523-.348-1.178 9.301-6.094-1.39 1.964-15.501 21.327 4.865-1.964 15.501z" fill="#F6E9FA"/></svg>
